X: 25526
T: Maria's
R: waltz
M: 3/4
K: Gmajor
|:e>B e>f (3geB|E3 D E>F|G3 A B>c|d<B2 g f>g|
e>B e>f (3geB|E3 D E>F|G2 A2 B2|d3 g f>g|
e>B e>f (3geB|E3 D E>F|G3 A B>c|d>B3 d2|
c>d e2 f2|(3gdB G2 g2|f>g a2 d2|1 c3 g f>g:|2 c6||
|:a>b a2 d2|a>b a2 d2|g>a g2 c2|g>a g2 c2|
a>b a2 d2|a>b a2 d2|g2 f2 d2|c6|a>_b a2 c2|
a>_b a2 c2|g>a g2 B2|g>a g2 B2|a>=b a2 d2|
a>b a2 d2|g2 f2 d2|1 c6:|2 c2 d2 B2||e6|

